X:531
T: GOTT IST DIE LIEBE
N: F1032
O: Europa, Mitteleuropa, Deutschland
R: Erbauungs - Lied, religioes
M: 2/4
L: 1/8
K: C
 | E2DC | B,2Cz |
F2ED | C2D
E | FDCB, | C2z
D | E2DD | C2z2 |
D2DD | E2Dz |
B,2B,B, | C2B,
B, | A,EDC | B,2z
G | ECB,A, | G,2z2 |
E2DC | B,2Cz |
F2ED | C2D
E | FDCB, | C2z
D | E2DD | C2z2

@@@ Tune index: 5962
